material/.icons/material/molecule.svg

<svg xmlns="http://www.w3.org/2000/svg" viewBox="0 0 24 24"><path d="M7.27 10L9 7h5.42l1.16-2-.08-.5A1.5 1.5 0 0117 3a1.5 1.5 0 011.5 1.5c0 .71-.5 1.31-1.17 1.46l-.96 1.67L17.73 10l.86-1.5-.09-.5A1.5 1.5 0 0120 6.5 1.5 1.5 0 0121.5 8c0 .71-.5 1.3-1.15 1.46L18.89 12l1.73 3c.77.07 1.38.71 1.38 1.5a1.5 1.5 0 01-1.5 1.5 1.5 1.5 0 01-1.5-1.5v-.26L17.73 14l-1.36 2.37.96 1.67a1.5 1.5 0 011.17 1.46A1.5 1.5 0 0117 21a1.5 1.5 0 01-1.5-1.5l.08-.5-1.16-2h-3.84l-1.16 2 .08.5A1.5 1.5 0 018 21a1.5 1.5 0 01-1.5-1.5c0-.71.5-1.31 1.17-1.46l.96-1.67L4.38 9C3.61 8.93 3 8.29 3 7.5A1.5 1.5 0 014.5 6 1.5 1.5 0 016 7.5v.26L7.27 10m2.88-1l-1.73 3 1.73 3h4.7l1.73-3-1.73-3h-4.7z"/></svg>

<?xml version="1.0" encoding="UTF-8"?><!DOCTYPE svg PUBLIC "-//W3C//DTD SVG 1.1//EN" "http://www.w3.org/Graphics/SVG/1.1/DTD/svg11.dtd"><svg xmlns="http://www.w3.org/2000/svg" xmlns:xlink="http://www.w3.org/1999/xlink" version="1.1" id="mdi-molecule" width="24" height="24" viewBox="0 0 24 24"><path d="M7.27,10L9,7H14.42L15.58,5L15.5,4.5A1.5,1.5 0 0,1 17,3A1.5,1.5 0 0,1 18.5,4.5C18.5,5.21 18,5.81 17.33,5.96L16.37,7.63L17.73,10L18.59,8.5L18.5,8A1.5,1.5 0 0,1 20,6.5A1.5,1.5 0 0,1 21.5,8C21.5,8.71 21,9.3 20.35,9.46L18.89,12L20.62,15C21.39,15.07 22,15.71 22,16.5A1.5,1.5 0 0,1 20.5,18A1.5,1.5 0 0,1 19,16.5V16.24L17.73,14L16.37,16.37L17.33,18.04C18,18.19 18.5,18.79 18.5,19.5A1.5,1.5 0 0,1 17,21A1.5,1.5 0 0,1 15.5,19.5L15.58,19L14.42,17H10.58L9.42,19L9.5,19.5A1.5,1.5 0 0,1 8,21A1.5,1.5 0 0,1 6.5,19.5C6.5,18.79 7,18.19 7.67,18.04L8.63,16.37L4.38,9C3.61,8.93 3,8.29 3,7.5A1.5,1.5 0 0,1 4.5,6A1.5,1.5 0 0,1 6,7.5C6,7.59 6,7.68 6,7.76L7.27,10M10.15,9L8.42,12L10.15,15H14.85L16.58,12L14.85,9H10.15Z" /></svg>
